X: 3
T: Cela sans plus ne souffi pas
N: Derived from Jap3003-Cela_sans_plus_ne_souffi_pas.krn
C: Jean Japart
%%abc-version 2.0
%%abcx-abcm2ps-target-version 5.9.1 (29 Sep 2008)
%%abc-creator hum2abc beta
%%abcx-conversion-date 2019/02/16 20:40:05
%%abc-edited-by Jesse Rodin
%%abc-edited-by Chris Gage 09-04-2013
%%abcx-initial-encoding-date 2013/10/22/
%%humdrum-veritas 2521500291
%%humdrum-veritas-data 1495495409
%%linebreak <none>
%%barnumbers 0
L: 1/4
M: 2/1
Q: 1/2=120
%%staves [1 2 3 4]
V: 1 clef=treble
V: 2 clef=treble-8
V: 3 clef=treble-8
V: 4 clef=bass
K: Bb
[V:1] z8 | 
[V:2] c8 | 
[V:3] z8 | 
[V:4] C,4F,4- | 
[V:1] z8 | 
[V:2] A4G4 | 
[V:3] z8 | 
[V:4] F,4E,4 | 
[V:1] z8 | 
[V:2] F2c2d2c2- | 
[V:3] F8 | 
[V:4] F,4B,,2A,,2 | 
[V:1] z8 | 
[V:2] cBB4A2 | 
[V:3] D4C4 | 
[V:4] B,,4F,,4 | 
[V:1] F8 | 
[V:2] B4F2B2- | 
[V:3] B,8 | 
[V:4] z4B,,4- | 
[V:1] D4C4 | 
[V:2] B2AGAGFE | 
[V:3] z8 | 
[V:4] B,,4A,,4 | 
[V:1] B,8 | 
[V:2] D2F4ED | 
[V:3] D8 | 
[V:4] B,,8 | 
[V:1] z8 | 
[V:2] C2G4F2 | 
[V:3] E6DC | 
[V:4] C,4z4 | 
[V:1] D8 | 
[V:2] G2FED4 | 
[V:3] B,2C4=B,2 | 
[V:4] z4F,4 | 
[V:1] E6DC | 
[V:2] C4z4 | 
[V:3] C2G4F2 | 
[V:4] E,2C,4D,2 | 
[V:1] B,2C4=B,2 | 
[V:2] z4F4 | 
[V:3] G2E2D4 | 
[V:4] G,,4z4 | 
[V:1] C8- | 
[V:2] G4G4 | 
[V:3] C8 | 
[V:4] z4C,4 | 
[V:1] C8 | 
[V:2] A6GF | 
[V:3] z4c4 | 
[V:4] F,,8- | 
[V:1] z8 | 
[V:2] A4G4 | 
[V:3] c4B4 | 
[V:4] F,,4G,,4 | 
[V:1] z4c4 | 
[V:2] C2F3GA2 | 
[V:3] A6F2 | 
[V:4] A,,4F,,4- | 
[V:1] c4B4 | 
[V:2] F4z4 | 
[V:3] A4G4 | 
[V:4] F,,4G,,4 | 
[V:1] A6F2 | 
[V:2] z4c4 | 
[V:3] D2F3GA2- | 
[V:4] A,,4F,,4 | 
[V:1] A4G4 | 
[V:2] c4B4 | 
[V:3] AGF4=E2 | 
[V:4] z8 | 
[V:1] D2F3GA2- | 
[V:2] A2c3BAG | 
[V:3] F2A3Bc2- | 
[V:4] F,,8 | 
[V:1] AGF4=E2 | 
[V:2] F4C4 | 
[V:3] cBA2G4 | 
[V:4] z4z2C,2 | 
[V:1] F8- | 
[V:2] z4D4 | 
[V:3] F8 | 
[V:4] D,3E,F,2B,,2- | 
[V:1] F8 | 
[V:2] D6F2- | 
[V:3] z4A4 | 
[V:4] B,,C,D,E,F,2D,2- | 
[V:1] z8 | 
[V:2] FEDCD4 | 
[V:3] A4B4 | 
[V:4] D,C,B,,A,,G,,4 | 
[V:1] z8 | 
[V:2] C2E3FG2- | 
[V:3] c6B2 | 
[V:4] z2C,4G,,2 | 
[V:1] z8 | 
[V:2] G2F2G2B2- | 
[V:3] A4G4- | 
[V:4] D,4E,3D, | 
[V:1] z8 | 
[V:2] Bcd4c2- | 
[V:3] G2F2G2E2 | 
[V:4] E,2B,,4C,2 | 
[V:1] z8 | 
[V:2] c2B2A2G2- | 
[V:3] D4C2E2- | 
[V:4] G,,4z2C,2 | 
[V:1] z8 | 
[V:2] GFEDC2c2- | 
[V:3] EFG3EA2- | 
[V:4] C,4E,2C,2 | 
[V:1] z8 | 
[V:2] cBA2G4 | 
[V:3] AGF4=E2 | 
[V:4] F,4C,4 | 
[V:1] A4A4 | 
[V:2] F4z4 | 
[V:3] F8 | 
[V:4] z2F,,4A,,2 | 
[V:1] B4c4- | 
[V:2] G4A3B | 
[V:3] z8 | 
[V:4] G,,4F,,4 | 
[V:1] c2B2A4 | 
[V:2] c2d3cd2 | 
[V:3] z8 | 
[V:4] z2E,2F,4 | 
[V:1] G6F2 | 
[V:2] B2c2e2d2- | 
[V:3] z8 | 
[V:4] G,2E,4F,2 | 
[V:1] G2E2D4 | 
[V:2] d2c4=B2 | 
[V:3] z8 | 
[V:4] E,2C,2G,4 | 
[V:1] C2G2A2G2- | 
[V:2] c4c4 | 
[V:3] z8 | 
[V:4] C,4F,2E,2 | 
[V:1] G2F4=E2 | 
[V:2] A4G4 | 
[V:3] z8 | 
[V:4] F,4C,4 | 
[V:1] F8 | 
[V:2] F2A3Bc2- | 
[V:3] z4F4 | 
[V:4] F,,8 | 
[V:1] z8 | 
[V:2] cBB4A2 | 
[V:3] D4C4 | 
[V:4] B,,4F,,4 | 
[V:1] z4F4 | 
[V:2] B4F2B2- | 
[V:3] B,8 | 
[V:4] z4B,,4- | 
[V:1] D4C4 | 
[V:2] B2AGAGFE | 
[V:3] z8 | 
[V:4] B,,4A,,4 | 
[V:1] B,8 | 
[V:2] D2F4ED | 
[V:3] D8 | 
[V:4] B,,8 | 
[V:1] z8 | 
[V:2] C2G4F2 | 
[V:3] E6DC | 
[V:4] C,4z4 | 
[V:1] D8 | 
[V:2] G2FED4 | 
[V:3] B,2C4=B,2 | 
[V:4] z4F,4 | 
[V:1] E6DC | 
[V:2] C2c3BAG | 
[V:3] C4E4 | 
[V:4] E,4C,4 | 
[V:1] B,2C3=B,=B,A, | 
[V:2] F2G4F2 | 
[V:3] D8 | 
[V:4] z4D,4 | 
[V:1] C8- | 
[V:2] G8- | 
[V:3] C8- | 
[V:4] E,6C,2 | 
[V:1] C8 |]  
[V:2] G8 |]  
[V:3] C8 |]  
[V:4] C,8 |]  



